src/components/content/Icon/distinctive/analysis.svg

<svg width="100" height="100" viewBox="0 0 100 100" fill="none" xmlns="http://www.w3.org/2000/svg">
<path d="M82.4331 24.8625L71.2311 14.9698C69.8436 13.7448 67.8008 13.7833 66.6769 15.0562L61.9894 20.3635L21.5727 66.1291C21.5251 66.1829 21.4946 66.2496 21.4852 66.3208L18.9102 85.0198V85.027C18.9102 85.0312 18.9092 85.0354 18.9092 85.0396V85.1156C18.9102 85.1239 18.9123 85.1312 18.9144 85.1395C18.9165 85.1489 18.9175 85.1593 18.9206 85.1687C18.9206 85.1718 18.9227 85.175 18.9227 85.1781C18.9227 85.1802 18.9238 85.1823 18.9248 85.1833C18.9279 85.1916 18.9321 85.1989 18.9352 85.2073C18.9394 85.2156 18.9425 85.225 18.9467 85.2333C18.9476 85.2363 18.949 85.2391 18.9508 85.2416C18.9519 85.2437 18.9529 85.2458 18.954 85.2468C18.9581 85.2541 18.9644 85.2614 18.9696 85.2687C18.9748 85.276 18.979 85.2843 18.9852 85.2916C18.9873 85.2937 18.9894 85.2968 18.9915 85.2989C18.9936 85.301 18.9946 85.3031 18.9967 85.3052C19.0019 85.3114 19.0081 85.3166 19.0133 85.3218C19.0154 85.3239 19.0175 85.326 19.0186 85.3281L19.0206 85.3302L19.0321 85.3416C19.0342 85.3437 19.0352 85.3458 19.0373 85.3468C19.0373 85.3468 19.0394 85.3479 19.0394 85.3489C19.0436 85.352 19.0477 85.3552 19.0519 85.3593C19.0571 85.3635 19.0633 85.3677 19.0686 85.3718C19.0717 85.3739 19.0748 85.3771 19.079 85.3791C19.0852 85.3833 19.0915 85.3864 19.0988 85.3906C19.1029 85.3927 19.1061 85.3958 19.1102 85.3979L19.1165 85.401H19.1175C19.1238 85.4041 19.129 85.4073 19.1352 85.4093C19.1404 85.4114 19.1446 85.4135 19.1498 85.4145C19.1561 85.4166 19.1623 85.4198 19.1696 85.4218C19.1758 85.4239 19.1821 85.425 19.1883 85.427C19.1925 85.427 19.1956 85.4291 19.1998 85.4291C19.204 85.4291 19.2092 85.4312 19.2133 85.4323C19.2165 85.4323 19.2206 85.4333 19.2238 85.4343C19.2415 85.4375 19.2592 85.4385 19.2769 85.4385H19.28C19.2967 85.4385 19.3123 85.4375 19.329 85.4354C19.3331 85.4354 19.3373 85.4343 19.3415 85.4333C19.3446 85.4333 19.3477 85.4333 19.3508 85.4323C19.354 85.4323 19.3571 85.4302 19.3613 85.4302C19.3654 85.4302 19.3696 85.4291 19.3738 85.4281L37.6102 80.5604C37.68 80.5416 37.7415 80.5031 37.7894 80.4489L78.1394 34.7583C78.1675 34.7406 78.1946 34.7198 78.2186 34.6937L79.581 33.1531C79.5904 33.1448 79.6008 33.1375 79.6092 33.127C79.6279 33.1062 79.6446 33.0843 79.6613 33.0625L81.2883 31.2229C81.2883 31.2229 81.2977 31.2156 81.3019 31.2104C81.3133 31.1968 81.3248 31.1823 81.3363 31.1687L82.9102 29.3896C84.0342 28.1166 83.8206 26.0843 82.4331 24.8593V24.8625ZM65.6144 17.3593C66.1738 16.726 67.5477 16.9864 68.6154 17.9302L79.8175 27.8229C80.8758 28.7573 81.305 30.0729 80.7675 30.7125L79.7706 31.8396C79.7331 31.7166 79.6842 31.5885 79.6227 31.4573C79.3425 30.851 78.8383 30.2083 78.204 29.6489L67.0019 19.7562C66.1873 19.0364 65.3321 18.5927 64.629 18.475L65.6144 17.3593ZM63.9217 19.2771C64.0467 19.1364 64.3873 19.1323 64.8102 19.2677C65.3446 19.4385 65.9675 19.8156 66.5196 20.3041L77.7217 30.1968C78.2738 30.6843 78.7258 31.2562 78.9613 31.7656C79.1394 32.1521 79.181 32.476 79.0758 32.6271L77.9133 33.9416L75.9467 32.2041C75.929 32.175 75.9071 32.1479 75.88 32.1239C75.8529 32.1 75.8227 32.0823 75.7915 32.0677L73.6529 30.1791C73.6342 30.1479 73.6113 30.1177 73.5831 30.0927C73.5549 30.0682 73.5229 30.0485 73.4883 30.0343L71.429 28.2156C71.4098 28.1804 71.3848 28.1487 71.355 28.1218C71.3238 28.0948 71.2894 28.075 71.2529 28.0593L69.4248 26.4448C69.4056 26.4095 69.3806 26.3778 69.3508 26.351C69.3196 26.3239 69.2852 26.3041 69.2488 26.2885L67.1894 24.4698C67.1706 24.4385 67.1477 24.4083 67.1196 24.3823C67.0904 24.3562 67.0581 24.3385 67.0248 24.3229L64.8873 22.4343C64.8696 22.4052 64.8477 22.3771 64.8206 22.3541C64.7936 22.3302 64.7633 22.3125 64.7321 22.2979L62.7779 20.5718L63.9227 19.275L63.9217 19.2771ZM66.3508 24.7021L26.8144 69.4718C26.7936 69.4948 26.7769 69.5208 26.7623 69.5479L20.8373 81.1885L24.7956 68.2281L64.5988 23.1562L66.3498 24.7031L66.3508 24.7021ZM68.5811 26.6718L29.3644 71.0791C29.3581 71.0864 29.3519 71.0937 29.3467 71.101L21.479 81.5354L27.3915 69.9187L66.8967 25.1843L68.5811 26.6718ZM70.5852 28.4416L31.3779 72.8385L22.3467 81.5968L29.9206 71.551L69.1279 27.1541L70.5852 28.4416ZM72.8154 30.4114L33.3102 75.1458L22.5133 82.45L31.8956 73.352C31.9019 73.3458 31.9092 73.3385 31.9154 73.3312L71.1321 28.9239L72.8154 30.4104V30.4114ZM33.7571 75.7239C33.7831 75.7062 33.8061 75.6864 33.8258 75.6635L73.3623 30.8937L75.1133 32.4406L35.3102 77.5125L22.9383 83.0437L33.7571 75.7239ZM22.1915 66.5302L62.2936 21.1198L64.0519 22.6729L24.1956 67.8041C24.1613 67.8427 24.1352 67.8895 24.1206 67.9385L20.2529 80.6021L22.1904 66.5302H22.1915ZM37.3165 79.8864L23.5925 83.55L35.68 78.1458C35.7279 78.125 35.7696 78.0937 35.804 78.0541L75.6602 32.9229L77.4185 34.476L37.3165 79.8864ZM82.3633 28.9093L81.7071 29.651C81.5946 28.8573 81.1061 27.9875 80.2998 27.276L69.0977 17.3833C68.2915 16.6718 67.3686 16.2948 66.5665 16.2812L67.2217 15.5385C68.08 14.5666 69.6613 14.5573 70.7467 15.5156L81.9488 25.4083C83.0342 26.3677 83.2196 27.9375 82.3623 28.9093H82.3633Z" fill="#0B301A"/>
</svg>

<svg xmlns="http://www.w3.org/2000/svg" width="100" height="100" fill="none" viewBox="0 0 100 100"><path fill="#0b301a" d="M82.433 24.863 71.231 14.97c-1.387-1.225-3.43-1.187-4.554.086l-4.688 5.307L21.573 66.13a.36.36 0 0 0-.088.192L18.91 85.02v.096q0 .011.004.023.002.015.007.03l.002.01q0 .002.002.004l.01.024.012.026q0 .004.004.009 0 .003.003.005l.016.022.015.023.006.007.006.006.016.017.006.006.002.002.011.012.005.005q.001 0 .002.002l.013.01.017.013.01.007.02.012.011.007.006.003h.002l.017.008.015.005q.009.005.02.008l.018.005.012.002.013.003.01.002a.3.3 0 0 0 .054.005h.003l.049-.004q.006 0 .012-.002h.01q.004-.002.01-.003.006 0 .013-.002L37.61 80.56a.37.37 0 0 0 .18-.111l40.35-45.69a.4.4 0 0 0 .079-.065l1.362-1.54q.015-.014.028-.027.028-.031.052-.065l1.627-1.84s.01-.006.014-.012l.034-.041 1.574-1.78c1.124-1.272.91-3.305-.477-4.53zm-16.819-7.504c.56-.633 1.934-.373 3.001.571l11.203 9.893c1.058.934 1.487 2.25.95 2.89l-.997 1.127a3 3 0 0 0-.148-.383c-.28-.606-.785-1.249-1.419-1.808l-11.202-9.893c-.815-.72-1.67-1.163-2.373-1.281zm-1.692 1.918c.125-.14.465-.145.888-.01.535.172 1.157.549 1.71 1.037l11.202 9.893c.552.487 1.004 1.06 1.24 1.569.177.386.219.71.114.861l-1.163 1.315-1.966-1.738a.35.35 0 0 0-.156-.136l-2.138-1.889a.343.343 0 0 0-.165-.145l-2.059-1.818a.4.4 0 0 0-.074-.094.4.4 0 0 0-.102-.063l-1.828-1.614a.35.35 0 0 0-.176-.157l-2.06-1.818a.4.4 0 0 0-.07-.088.4.4 0 0 0-.094-.06l-2.138-1.888a.33.33 0 0 0-.155-.136l-1.954-1.726 1.145-1.297zm2.429 5.425-39.537 44.77a.4.4 0 0 0-.052.076l-5.925 11.64 3.959-12.96 39.803-45.072 1.75 1.547zm2.23 1.97L29.364 71.079l-.017.022-7.868 10.434 5.913-11.616 39.505-44.735zm2.004 1.77L31.378 72.838l-9.031 8.759L29.92 71.55l39.207-44.397zm2.23 1.97L33.31 75.145 22.513 82.45l9.383-9.098.02-.02 39.216-44.408 1.683 1.486zM33.757 75.723a.4.4 0 0 0 .069-.06l39.536-44.77 1.751 1.547L35.31 77.513l-12.372 5.53zM22.192 66.53l40.102-45.41 1.758 1.553-39.856 45.131a.4.4 0 0 0-.075.135l-3.868 12.663L22.19 66.53zm15.124 13.356L23.592 83.55l12.088-5.404a.35.35 0 0 0 .124-.092L75.66 32.923l1.758 1.553zM82.363 28.91l-.656.742c-.112-.794-.6-1.663-1.407-2.375l-11.202-9.893c-.806-.711-1.73-1.088-2.531-1.102l.655-.742c.858-.972 2.44-.982 3.525-.023l11.202 9.892c1.085.96 1.27 2.53.413 3.501z"/></svg>
